X: 19210
T: Islay Rant
R: reel
M: 4/4
K: Adorian
|:EAAB cBcd|eA A2 eAfA|g3f gedB|G2 BG cGBG|
EAAB cBcd|eA A2 eAfA|g3f gedB|1 GABG A3 G:|2 GABG A3g||
|:a3g aged|cA A2 eAfA|g3f gedB|G2 BG cGBG|
cA A2 cAdA|eA A2 eAfA|g3f gedB|1 GABG A3 g:|2 GABG A4||

